austria/municipalities/61413.svg

<?xml version="1.0" encoding="UTF-8"?>
<!DOCTYPE svg PUBLIC "-//W3C//DTD SVG 1.1//EN" "http://www.w3.org/Graphics/SVG/1.1/DTD/svg11.dtd">
<svg xmlns="http://www.w3.org/2000/svg" version="1.1" width="100px" height="115px" style="shape-rendering:geometricPrecision; text-rendering:geometricPrecision; image-rendering:optimizeQuality; fill-rule:evenodd; clip-rule:evenodd" xmlns:xlink="http://www.w3.org/1999/xlink">
<g><path style="opacity:1" fill="#b3b7b8" d="M -0.5,-0.5 C 32.8333,-0.5 66.1667,-0.5 99.5,-0.5C 99.5,-0.166667 99.5,0.166667 99.5,0.5C 95.5,0.5 91.5,0.5 87.5,0.5C 58.8333,0.5 30.1667,0.5 1.5,0.5C 1.18601,15.0059 0.519338,29.3393 -0.5,43.5C -0.5,28.8333 -0.5,14.1667 -0.5,-0.5 Z"/></g>
<g><path style="opacity:1" fill="#273a36" d="M 87.5,0.5 C 90.1667,1.16667 92.8333,1.83333 95.5,2.5C 95.1667,2.5 94.8333,2.5 94.5,2.5C 63.8319,2.2733 33.1652,1.93997 2.5,1.5C 2.33336,26.5022 2.50003,51.5022 3,76.5C 4.39153,81.131 6.22486,85.4643 8.5,89.5C 8.5,90.1667 8.5,90.8333 8.5,91.5C 8.16667,91.5 7.83333,91.5 7.5,91.5C 5.67994,87.8599 3.84661,84.1932 2,80.5C 1.85107,76.8675 1.01774,73.5341 -0.5,70.5C -0.5,61.5 -0.5,52.5 -0.5,43.5C 0.519338,29.3393 1.18601,15.0059 1.5,0.5C 30.1667,0.5 58.8333,0.5 87.5,0.5 Z"/></g>
<g><path style="opacity:1" fill="#286d59" d="M 94.5,2.5 C 93.7106,5.43426 91.7106,7.26759 88.5,8C 86.8753,8.85252 86.5419,9.85252 87.5,11C 84.1396,11.6937 82.1396,13.6937 81.5,17C 80.552,17.4828 79.552,17.6495 78.5,17.5C 78.719,18.675 78.3857,19.675 77.5,20.5C 73.8901,22.444 70.5568,24.7774 67.5,27.5C 66.2889,28.7202 66.2889,29.8869 67.5,31C 64.9774,31.5182 62.9774,32.8515 61.5,35C 60.2068,35.49 58.8734,35.6567 57.5,35.5C 57.6567,39.7689 55.6567,42.2689 51.5,43C 51.9574,43.414 52.2907,43.914 52.5,44.5C 47.5206,47.8133 43.1872,51.8133 39.5,56.5C 38.8333,42.3391 38.1667,28.3391 37.5,14.5C 36.0106,12.1949 34.5106,9.86162 33,7.5C 31.1581,9.86358 29.3247,12.1969 27.5,14.5C 26.6685,30.6615 26.1685,46.9949 26,63.5C 25.6121,64.428 24.9454,65.0946 24,65.5C 20.3835,64.121 16.8835,63.7876 13.5,64.5C 12.5,64.5 11.5,64.5 10.5,64.5C 10.1924,66.924 10.5258,69.2573 11.5,71.5C 17.1138,70.3791 22.7805,70.2124 28.5,71C 26.6763,71.66 25.343,72.8267 24.5,74.5C 23.5987,75.2905 22.9321,76.2905 22.5,77.5C 17.5333,81.1322 12.8666,85.1322 8.5,89.5C 6.22486,85.4643 4.39153,81.131 3,76.5C 2.50003,51.5022 2.33336,26.5022 2.5,1.5C 33.1652,1.93997 63.8319,2.2733 94.5,2.5 Z"/></g>
<g><path style="opacity:1" fill="#f9fbf8" d="M 96.5,4.5 C 97.791,27.6805 97.6243,51.0139 96,74.5C 95.2612,77.5465 94.4279,80.5465 93.5,83.5C 93.1667,83.5 92.8333,83.5 92.5,83.5C 79.1836,82.7847 65.8503,82.2847 52.5,82C 48.6969,80.3446 45.0302,78.5112 41.5,76.5C 39.8984,74.9261 37.8984,74.2594 35.5,74.5C 35.5,73.5 35.5,72.5 35.5,71.5C 39.8461,71.6657 44.1794,71.499 48.5,71C 43.8452,70.5008 39.1785,70.3342 34.5,70.5C 34.5,71.8333 34.5,73.1667 34.5,74.5C 34.6602,76.1992 34.4935,77.8659 34,79.5C 32.3005,78.5939 30.4672,78.2606 28.5,78.5C 28.5,77.1667 28.5,75.8333 28.5,74.5C 27.1667,74.5 25.8333,74.5 24.5,74.5C 25.343,72.8267 26.6763,71.66 28.5,71C 22.7805,70.2124 17.1138,70.3791 11.5,71.5C 10.5258,69.2573 10.1924,66.924 10.5,64.5C 11.5,64.5 12.5,64.5 13.5,64.5C 18.0334,65.9836 22.7001,66.6503 27.5,66.5C 27.5,58.8333 27.5,51.1667 27.5,43.5C 28.2679,44.2625 28.7679,45.2625 29,46.5C 29.3333,35.5 29.6667,24.5 30,13.5C 30.6891,12.6433 31.5224,11.9767 32.5,11.5C 33.2807,12.7366 34.2807,13.7366 35.5,14.5C 36.4979,22.8068 36.8312,31.1401 36.5,39.5C 36.5,48.5 36.5,57.5 36.5,66.5C 35.448,66.3505 34.448,66.5172 33.5,67C 40.2629,67.7142 46.9296,67.2142 53.5,65.5C 53.3359,68.1873 53.5026,70.854 54,73.5C 54.8236,70.1177 54.657,66.7844 53.5,63.5C 48.3625,65.5275 43.0292,66.5275 37.5,66.5C 37.3398,64.8008 37.5065,63.1341 38,61.5C 57.7263,42.6054 77.2263,23.6054 96.5,4.5 Z"/></g>
<g><path style="opacity:1" fill="#d4e6e1" d="M 37.5,14.5 C 37.8261,23.0168 37.4927,31.3501 36.5,39.5C 36.8312,31.1401 36.4979,22.8068 35.5,14.5C 34.2807,13.7366 33.2807,12.7366 32.5,11.5C 31.5224,11.9767 30.6891,12.6433 30,13.5C 29.6667,24.5 29.3333,35.5 29,46.5C 28.7679,45.2625 28.2679,44.2625 27.5,43.5C 27.5,33.8333 27.5,24.1667 27.5,14.5C 29.3247,12.1969 31.1581,9.86358 33,7.5C 34.5106,9.86162 36.0106,12.1949 37.5,14.5 Z"/></g>
<g><path style="opacity:1" fill="#386456" d="M 94.5,2.5 C 94.8333,2.5 95.1667,2.5 95.5,2.5C 95.3284,3.49162 95.6618,4.15829 96.5,4.5C 77.2263,23.6054 57.7263,42.6054 38,61.5C 37.5065,63.1341 37.3398,64.8008 37.5,66.5C 37.1667,66.5 36.8333,66.5 36.5,66.5C 36.5,57.5 36.5,48.5 36.5,39.5C 37.4927,31.3501 37.8261,23.0168 37.5,14.5C 38.1667,28.3391 38.8333,42.3391 39.5,56.5C 43.1872,51.8133 47.5206,47.8133 52.5,44.5C 52.2907,43.914 51.9574,43.414 51.5,43C 55.6567,42.2689 57.6567,39.7689 57.5,35.5C 58.8734,35.6567 60.2068,35.49 61.5,35C 62.9774,32.8515 64.9774,31.5182 67.5,31C 66.2889,29.8869 66.2889,28.7202 67.5,27.5C 70.5568,24.7774 73.8901,22.444 77.5,20.5C 78.3857,19.675 78.719,18.675 78.5,17.5C 79.552,17.6495 80.552,17.4828 81.5,17C 82.1396,13.6937 84.1396,11.6937 87.5,11C 86.5419,9.85252 86.8753,8.85252 88.5,8C 91.7106,7.26759 93.7106,5.43426 94.5,2.5 Z"/></g>
<g><path style="opacity:1" fill="#2d5347" d="M 27.5,14.5 C 27.5,24.1667 27.5,33.8333 27.5,43.5C 27.5,51.1667 27.5,58.8333 27.5,66.5C 22.7001,66.6503 18.0334,65.9836 13.5,64.5C 16.8835,63.7876 20.3835,64.121 24,65.5C 24.9454,65.0946 25.6121,64.428 26,63.5C 26.1685,46.9949 26.6685,30.6615 27.5,14.5 Z"/></g>
<g><path style="opacity:1" fill="#474845" d="M 87.5,0.5 C 91.5,0.5 95.5,0.5 99.5,0.5C 99.5,13.1667 99.5,25.8333 99.5,38.5C 98.6694,49.6593 98.1694,60.9926 98,72.5C 97.2756,76.4273 96.109,80.094 94.5,83.5C 94.1667,83.5 93.8333,83.5 93.5,83.5C 94.4279,80.5465 95.2612,77.5465 96,74.5C 97.6243,51.0139 97.791,27.6805 96.5,4.5C 95.6618,4.15829 95.3284,3.49162 95.5,2.5C 92.8333,1.83333 90.1667,1.16667 87.5,0.5 Z"/></g>
<g><path style="opacity:1" fill="#989694" d="M 36.5,66.5 C 36.8333,66.5 37.1667,66.5 37.5,66.5C 43.0292,66.5275 48.3625,65.5275 53.5,63.5C 54.657,66.7844 54.8236,70.1177 54,73.5C 53.5026,70.854 53.3359,68.1873 53.5,65.5C 46.9296,67.2142 40.2629,67.7142 33.5,67C 34.448,66.5172 35.448,66.3505 36.5,66.5 Z"/></g>
<g><path style="opacity:1" fill="#888d8b" d="M 35.5,74.5 C 35.1667,74.5 34.8333,74.5 34.5,74.5C 34.5,73.1667 34.5,71.8333 34.5,70.5C 39.1785,70.3342 43.8452,70.5008 48.5,71C 44.1794,71.499 39.8461,71.6657 35.5,71.5C 35.5,72.5 35.5,73.5 35.5,74.5 Z"/></g>
<g><path style="opacity:1" fill="#a23b36" d="M 34.5,74.5 C 34.8333,74.5 35.1667,74.5 35.5,74.5C 37.8984,74.2594 39.8984,74.9261 41.5,76.5C 39.8333,76.5 38.1667,76.5 36.5,76.5C 37.057,80.1745 37.7237,83.8412 38.5,87.5C 37.6978,90.4486 37.3645,93.4486 37.5,96.5C 43.3992,97.2049 49.3992,97.8716 55.5,98.5C 56.3597,102.434 56.693,106.434 56.5,110.5C 59.6839,109.357 63.0173,108.691 66.5,108.5C 63.4103,111.054 59.7437,112.054 55.5,111.5C 55.81,108.287 55.4767,105.287 54.5,102.5C 53.8777,100.665 52.5444,99.4983 50.5,99C 42.7978,98.2689 35.1311,98.4356 27.5,99.5C 30.3976,97.2275 30.0642,95.7275 26.5,95C 28.1341,94.5065 29.8008,94.3398 31.5,94.5C 31.5,91.5 31.5,88.5 31.5,85.5C 28.8333,85.5 26.1667,85.5 23.5,85.5C 23.5,83.1667 23.5,80.8333 23.5,78.5C 25.1667,78.5 26.8333,78.5 28.5,78.5C 30.4672,78.2606 32.3005,78.5939 34,79.5C 34.4935,77.8659 34.6602,76.1992 34.5,74.5 Z"/></g>
<g><path style="opacity:1" fill="#f43a40" d="M 24.5,79.5 C 26.8056,79.9926 29.139,80.3259 31.5,80.5C 31.5,81.5 31.5,82.5 31.5,83.5C 29.1667,83.5 26.8333,83.5 24.5,83.5C 24.5,82.1667 24.5,80.8333 24.5,79.5 Z"/></g>
<g><path style="opacity:1" fill="#f8f9f6" d="M 99.5,38.5 C 99.5,63.8333 99.5,89.1667 99.5,114.5C 84.5,114.5 69.5,114.5 54.5,114.5C 56.8333,113.833 59.1667,113.167 61.5,112.5C 77.6701,108.601 88.6701,98.9341 94.5,83.5C 96.109,80.094 97.2756,76.4273 98,72.5C 98.1694,60.9926 98.6694,49.6593 99.5,38.5 Z"/></g>
<g><path style="opacity:1" fill="#f8faf8" d="M -0.5,70.5 C 1.01774,73.5341 1.85107,76.8675 2,80.5C 3.84661,84.1932 5.67994,87.8599 7.5,91.5C 15.8789,103.679 27.2123,111.345 41.5,114.5C 27.5,114.5 13.5,114.5 -0.5,114.5C -0.5,99.8333 -0.5,85.1667 -0.5,70.5 Z"/></g>
<g><path style="opacity:1" fill="#c9403e" d="M 41.5,76.5 C 45.0302,78.5112 48.6969,80.3446 52.5,82C 65.8503,82.2847 79.1836,82.7847 92.5,83.5C 89.7086,90.6231 85.3753,96.6231 79.5,101.5C 82.0819,97.3796 84.9152,93.3796 88,89.5C 88.4935,87.8659 88.6602,86.1992 88.5,84.5C 77.8333,84.5 67.1667,84.5 56.5,84.5C 56.6469,89.2142 56.3136,93.8809 55.5,98.5C 49.3992,97.8716 43.3992,97.2049 37.5,96.5C 42.8333,96.5 48.1667,96.5 53.5,96.5C 53.6653,92.8183 53.4986,89.1516 53,85.5C 51.1741,83.9262 49.0075,83.0929 46.5,83C 44.2956,81.2355 42.6289,79.0688 41.5,76.5 Z"/></g>
<g><path style="opacity:1" fill="#8f4c4a" d="M 24.5,74.5 C 25.8333,74.5 27.1667,74.5 28.5,74.5C 28.5,75.8333 28.5,77.1667 28.5,78.5C 26.8333,78.5 25.1667,78.5 23.5,78.5C 23.5,80.8333 23.5,83.1667 23.5,85.5C 23.5,89.8333 23.5,94.1667 23.5,98.5C 21.73,91.6719 21.3967,84.6719 22.5,77.5C 22.9321,76.2905 23.5987,75.2905 24.5,74.5 Z"/></g>
<g><path style="opacity:1" fill="#f9393c" d="M 41.5,76.5 C 42.6289,79.0688 44.2956,81.2355 46.5,83C 49.0075,83.0929 51.1741,83.9262 53,85.5C 53.4986,89.1516 53.6653,92.8183 53.5,96.5C 48.1667,96.5 42.8333,96.5 37.5,96.5C 37.3645,93.4486 37.6978,90.4486 38.5,87.5C 37.7237,83.8412 37.057,80.1745 36.5,76.5C 38.1667,76.5 39.8333,76.5 41.5,76.5 Z"/></g>
<g><path style="opacity:1" fill="#f73a3c" d="M 79.5,101.5 C 75.9086,105.064 71.5752,107.398 66.5,108.5C 63.0173,108.691 59.6839,109.357 56.5,110.5C 56.693,106.434 56.3597,102.434 55.5,98.5C 56.3136,93.8809 56.6469,89.2142 56.5,84.5C 67.1667,84.5 77.8333,84.5 88.5,84.5C 88.6602,86.1992 88.4935,87.8659 88,89.5C 84.9152,93.3796 82.0819,97.3796 79.5,101.5 Z"/></g>
<g><path style="opacity:1" fill="#cb3f40" d="M 23.5,85.5 C 26.1667,85.5 28.8333,85.5 31.5,85.5C 31.5,88.5 31.5,91.5 31.5,94.5C 29.8008,94.3398 28.1341,94.5065 26.5,95C 30.0642,95.7275 30.3976,97.2275 27.5,99.5C 26.2921,98.7659 24.9587,98.4326 23.5,98.5C 23.5,94.1667 23.5,89.8333 23.5,85.5 Z"/></g>
<g><path style="opacity:1" fill="#6a3733" d="M 92.5,83.5 C 92.8333,83.5 93.1667,83.5 93.5,83.5C 93.8333,83.5 94.1667,83.5 94.5,83.5C 88.6701,98.9341 77.6701,108.601 61.5,112.5C 59.1667,112.5 56.8333,112.5 54.5,112.5C 54.5,109.167 54.5,105.833 54.5,102.5C 55.4767,105.287 55.81,108.287 55.5,111.5C 59.7437,112.054 63.4103,111.054 66.5,108.5C 71.5752,107.398 75.9086,105.064 79.5,101.5C 85.3753,96.6231 89.7086,90.6231 92.5,83.5 Z"/></g>
<g><path style="opacity:1" fill="#f7f7f6" d="M 22.5,77.5 C 21.3967,84.6719 21.73,91.6719 23.5,98.5C 24.9587,98.4326 26.2921,98.7659 27.5,99.5C 35.1311,98.4356 42.7978,98.2689 50.5,99C 52.5444,99.4983 53.8777,100.665 54.5,102.5C 54.5,105.833 54.5,109.167 54.5,112.5C 35.3777,113.603 20.0444,106.603 8.5,91.5C 8.5,90.8333 8.5,90.1667 8.5,89.5C 12.8666,85.1322 17.5333,81.1322 22.5,77.5 Z"/></g>
<g><path style="opacity:1" fill="#585855" d="M 7.5,91.5 C 7.83333,91.5 8.16667,91.5 8.5,91.5C 20.0444,106.603 35.3777,113.603 54.5,112.5C 56.8333,112.5 59.1667,112.5 61.5,112.5C 59.1667,113.167 56.8333,113.833 54.5,114.5C 50.1667,114.5 45.8333,114.5 41.5,114.5C 27.2123,111.345 15.8789,103.679 7.5,91.5 Z"/></g>
</svg>

<svg xmlns="http://www.w3.org/2000/svg" width="100" height="115" style="shape-rendering:geometricPrecision;text-rendering:geometricPrecision;image-rendering:optimizeQuality;fill-rule:evenodd;clip-rule:evenodd"><path style="opacity:1" fill="#b3b7b8" d="M-.5-.5h100v1h-98a857.236 857.236 0 0 1-2 43v-44z"/><path style="opacity:1" fill="#273a36" d="m87.5.5 8 2h-1c-30.668-.227-61.335-.56-92-1-.167 25.002 0 50.002.5 75 1.392 4.631 3.225 8.964 5.5 13v2h-1L2 80.5c-.149-3.632-.982-6.966-2.5-10v-27a857.236 857.236 0 0 0 2-43h86z"/><path style="opacity:1" fill="#286d59" d="M94.5 2.5c-.79 2.934-2.79 4.768-6 5.5-1.625.853-1.958 1.853-1 3-3.36.694-5.36 2.694-6 6a4.932 4.932 0 0 1-3 .5c.219 1.175-.114 2.175-1 3a52.184 52.184 0 0 0-10 7c-1.211 1.22-1.211 2.387 0 3.5-2.523.518-4.523 1.852-6 4a8.434 8.434 0 0 1-4 .5c.157 4.269-1.843 6.769-6 7.5.457.414.79.914 1 1.5a55.684 55.684 0 0 0-13 12c-.667-14.16-1.333-28.16-2-42-1.49-2.305-2.99-4.638-4.5-7a1108.005 1108.005 0 0 1-5.5 7 1190.055 1190.055 0 0 0-1.5 49c-.388.928-1.055 1.595-2 2-3.616-1.379-7.116-1.712-10.5-1h-3a13.117 13.117 0 0 0 1 7 50.817 50.817 0 0 1 17-.5c-1.824.66-3.157 1.827-4 3.5-.901.79-1.568 1.79-2 3a119.596 119.596 0 0 0-14 12c-2.275-4.036-4.108-8.369-5.5-13-.5-24.998-.667-49.998-.5-75 30.665.44 61.332.773 92 1z"/><path style="opacity:1" fill="#f9fbf8" d="M96.5 4.5c1.291 23.18 1.124 46.514-.5 70a140.474 140.474 0 0 1-2.5 9h-1a1237.623 1237.623 0 0 0-40-1.5 114.59 114.59 0 0 1-11-5.5c-1.602-1.574-3.602-2.24-6-2v-3c4.346.166 8.68-.001 13-.5a98.433 98.433 0 0 0-14-.5v4c.16 1.7-.007 3.366-.5 5-1.7-.906-3.533-1.24-5.5-1v-4h-4c.843-1.673 2.176-2.84 4-3.5a50.817 50.817 0 0 0-17 .5 13.117 13.117 0 0 1-1-7h3a40.588 40.588 0 0 0 14 2v-23c.768.763 1.268 1.763 1.5 3l1-33a7.253 7.253 0 0 1 2.5-2 9.427 9.427 0 0 0 3 3 157.123 157.123 0 0 1 1 25v27a4.932 4.932 0 0 0-3 .5 55.5 55.5 0 0 0 20-1.5 32.437 32.437 0 0 0 .5 8c.824-3.382.657-6.716-.5-10a42.617 42.617 0 0 1-16 3c-.16-1.7.007-3.366.5-5a4763.538 4763.538 0 0 0 58.5-57z"/><path style="opacity:1" fill="#d4e6e1" d="M37.5 14.5c.326 8.517-.007 16.85-1 25 .331-8.36-.002-16.693-1-25a9.427 9.427 0 0 1-3-3 7.253 7.253 0 0 0-2.5 2l-1 33c-.232-1.237-.732-2.237-1.5-3v-29c1.825-2.303 3.658-4.636 5.5-7 1.51 2.362 3.01 4.695 4.5 7z"/><path style="opacity:1" fill="#386456" d="M94.5 2.5h1c-.172.992.162 1.658 1 2a4763.538 4763.538 0 0 1-58.5 57c-.493 1.634-.66 3.3-.5 5h-1v-27c.993-8.15 1.326-16.483 1-25 .667 13.84 1.333 27.84 2 42a55.684 55.684 0 0 1 13-12 3.646 3.646 0 0 0-1-1.5c4.157-.731 6.157-3.231 6-7.5a8.434 8.434 0 0 0 4-.5c1.477-2.148 3.477-3.482 6-4-1.211-1.113-1.211-2.28 0-3.5a52.184 52.184 0 0 1 10-7c.886-.825 1.219-1.825 1-3a4.932 4.932 0 0 0 3-.5c.64-3.306 2.64-5.306 6-6-.958-1.147-.625-2.147 1-3 3.21-.732 5.21-2.566 6-5.5z"/><path style="opacity:1" fill="#2d5347" d="M27.5 14.5v52c-4.8.15-9.467-.516-14-2 3.384-.712 6.884-.379 10.5 1 .945-.405 1.612-1.072 2-2 .169-16.505.669-32.838 1.5-49z"/><path style="opacity:1" fill="#474845" d="M87.5.5h12v38a571.312 571.312 0 0 0-1.5 34c-.724 3.927-1.891 7.594-3.5 11h-1a140.474 140.474 0 0 0 2.5-9c1.624-23.486 1.791-46.82.5-70-.838-.342-1.172-1.008-1-2l-8-2z"/><path style="opacity:1" fill="#989694" d="M36.5 66.5h1a42.617 42.617 0 0 0 16-3c1.157 3.284 1.324 6.618.5 10a32.437 32.437 0 0 1-.5-8 55.5 55.5 0 0 1-20 1.5 4.932 4.932 0 0 1 3-.5z"/><path style="opacity:1" fill="#888d8b" d="M35.5 74.5h-1v-4c4.678-.166 9.345 0 14 .5-4.32.499-8.654.666-13 .5v3z"/><path style="opacity:1" fill="#a23b36" d="M34.5 74.5h1c2.398-.24 4.398.426 6 2h-5a190.673 190.673 0 0 0 2 11 29.153 29.153 0 0 0-1 9c5.9.705 11.9 1.372 18 2a45.795 45.795 0 0 1 1 12c3.184-1.143 6.517-1.809 10-2-3.09 2.554-6.756 3.554-11 3 .31-3.213-.023-6.213-1-9-.622-1.835-1.956-3.002-4-3.5a98.53 98.53 0 0 0-23 .5c2.898-2.272 2.564-3.772-1-4.5 1.634-.493 3.3-.66 5-.5v-9h-8v-7h5c1.967-.24 3.8.094 5.5 1 .493-1.634.66-3.3.5-5z"/><path style="opacity:1" fill="#f43a40" d="M24.5 79.5c2.306.493 4.639.826 7 1v3h-7v-4z"/><path style="opacity:1" fill="#f8f9f6" d="M99.5 38.5v76h-45l7-2c16.17-3.899 27.17-13.566 33-29 1.609-3.406 2.776-7.073 3.5-11 .17-11.507.67-22.84 1.5-34z"/><path style="opacity:1" fill="#f8faf8" d="M-.5 70.5c1.518 3.034 2.351 6.368 2.5 10l5.5 11c8.379 12.179 19.712 19.845 34 23h-42v-44z"/><path style="opacity:1" fill="#c9403e" d="M41.5 76.5a114.59 114.59 0 0 0 11 5.5c13.35.285 26.684.785 40 1.5-2.791 7.123-7.125 13.123-13 18 2.582-4.12 5.415-8.12 8.5-12 .493-1.634.66-3.3.5-5h-32a68.24 68.24 0 0 1-1 14c-6.1-.628-12.1-1.295-18-2h16a60.94 60.94 0 0 0-.5-11c-1.826-1.574-3.992-2.407-6.5-2.5a16.945 16.945 0 0 1-5-6.5z"/><path style="opacity:1" fill="#8f4c4a" d="M24.5 74.5h4v4h-5v20c-1.77-6.828-2.103-13.828-1-21 .432-1.21 1.099-2.21 2-3z"/><path style="opacity:1" fill="#f9393c" d="M41.5 76.5a16.945 16.945 0 0 0 5 6.5c2.508.093 4.674.926 6.5 2.5a60.94 60.94 0 0 1 .5 11h-16a29.153 29.153 0 0 1 1-9 190.673 190.673 0 0 1-2-11h5z"/><path style="opacity:1" fill="#f73a3c" d="M79.5 101.5c-3.591 3.564-7.925 5.898-13 7-3.483.191-6.816.857-10 2a45.795 45.795 0 0 0-1-12 68.24 68.24 0 0 0 1-14h32c.16 1.7-.007 3.366-.5 5a131.264 131.264 0 0 0-8.5 12z"/><path style="opacity:1" fill="#cb3f40" d="M23.5 85.5h8v9c-1.7-.16-3.366.007-5 .5 3.564.728 3.898 2.228 1 4.5-1.208-.734-2.541-1.067-4-1v-13z"/><path style="opacity:1" fill="#6a3733" d="M92.5 83.5h2c-5.83 15.434-16.83 25.101-33 29h-7v-10c.977 2.787 1.31 5.787 1 9 4.244.554 7.91-.446 11-3 5.075-1.102 9.409-3.436 13-7 5.875-4.877 10.209-10.877 13-18z"/><path style="opacity:1" fill="#f7f7f6" d="M22.5 77.5c-1.103 7.172-.77 14.172 1 21 1.459-.067 2.792.266 4 1a98.53 98.53 0 0 1 23-.5c2.044.498 3.378 1.665 4 3.5v10c-19.122 1.103-34.456-5.897-46-21v-2a119.596 119.596 0 0 1 14-12z"/><path style="opacity:1" fill="#585855" d="M7.5 91.5h1c11.544 15.103 26.878 22.103 46 21h7l-7 2h-13c-14.288-3.155-25.621-10.821-34-23z"/></svg>
